logo/compose.svg

<svg viewBox="0 0 256 148" xmlns="http://www.w3.org/2000/svg"><path fill="#038DC8" d="M202.36 29.56h-.13L152.56.63l-49.024 28.544L53.226-.01 -.03 30.96v56.32l102.784 59.9 49.152-28.42 50.43 29.18 53.63-30.98V60.64l-53.64-31.11Zm-.26 57.72l-42.12-24.45 42.49-24.832 42.11 24.7 -42.5 24.576v0Zm-99.72-49.664l42.49 24.576 -41.99 24.44 -42.37-24.71 41.85-24.32v0Zm92.416-3.84l-41.6 24.19 -42.37-24.58 41.72-24.32 42.24 24.7ZM95.59 33l-8.58 4.99 -34.69 19.58L10.97 33 53.33 8.42 95.57 33Zm-88.2 6.14l41.6 25.08v44.28l-41.6-25.35V39.12Zm49.92 29.44l41.6 24.7v44.16l-41.6-24.71v-44.16Zm98.94.51l42.36 24.96v43.77l-42.37-25.22V69.08v0Z"/><g opacity=".5" transform="translate(7.424 39.168)"><g fill="#038DC8"><path d="M49.92 73.728l41.6 24.44 0-44.04 -41.6-24.704Z"/><path d="M0 43.9l41.6 25.34 0-44.16L0-.01Z"/><path d="M148.864 73.6l42.36 25.21 0-43.904 -42.37-24.96Z"/></g></g></svg>

<?xml version="1.0" encoding="UTF-8"?>
<svg width="256px" height="148px" viewBox="0 0 256 148" version="1.1" xmlns="http://www.w3.org/2000/svg" preserveAspectRatio="xMidYMid">
    <title>Compose</title>
    <g>
        <path d="M202.368,29.568 L202.24,29.568 L152.576,0.64 L103.552,29.184 L53.248,0 L0,30.976 L0,87.296 L102.784,147.2 L151.936,118.784 L202.368,147.968 L256,116.992 L256,60.672 L202.368,29.568 Z M202.112,87.296 L160,62.848 L202.496,38.016 L244.608,62.72 L202.112,87.296 L202.112,87.296 Z M102.4,37.632 L144.896,62.208 L102.912,86.656 L60.544,61.952 L102.4,37.632 L102.4,37.632 Z M194.816,33.792 L153.216,57.984 L110.848,33.408 L152.576,9.088 L194.816,33.792 Z M95.616,33.024 L87.04,38.016 L52.352,57.6 L11.008,33.024 L53.376,8.448 L95.616,33.024 Z M7.424,39.168 L49.024,64.256 L49.024,108.544 L7.424,83.2 L7.424,39.168 Z M57.344,68.608 L98.944,93.312 L98.944,137.472 L57.344,112.768 L57.344,68.608 Z M156.288,69.12 L198.656,94.08 L198.656,137.856 L156.288,112.64 L156.288,69.12 L156.288,69.12 Z" fill="#038DC8"></path>
        <g fill="#038DC8" opacity="0.5" transform="translate(7.424000, 39.168000)">
            <polygon points="49.92 73.728 91.52 98.176 91.52 54.144 49.92 29.44"></polygon>
            <polygon points="0 43.904 41.6 69.248 41.6 25.088 0 0"></polygon>
            <polygon points="148.864 73.6 191.232 98.816 191.232 54.912 148.864 29.952"></polygon>
        </g>
    </g>
</svg>
